img/logo-bg.svg

<svg xmlns="http://www.w3.org/2000/svg" viewBox="0 0 967.46 1117.14"><defs><style>.cls-1{fill:#fff;}</style></defs><g id="圖層_2" data-name="圖層 2"><g id="圖層_2-2" data-name="圖層 2"><path class="cls-1" d="M197.18,328.47H348.5L484.34,687.39l125-358.92H764.12v23H726.33q-20,0-26.89,5.84t-6.91,20.28V737.47q0,10.77,8.3,16.6t28.57,5.83h34.72V783h-208V759.9H595q16.66,0,24.69-6.29a19.63,19.63,0,0,0,8-16.14v-386L477.41,783h-20.7L294.9,353.36V683.69q0,29.52,7.37,44.1a52.44,52.44,0,0,0,21.05,22.43q13.68,7.83,45.33,9.68V783H197.18V759.9q42.1-2.76,57.16-18.13t15.06-54.38V374q0-11.67-7.07-17.05t-26.43-5.38H197.18Z"/><path class="cls-1" d="M483.72,1117.14,0,837.85V279.29L483.72,0,967.46,279.29V837.85ZM33.63,818.44,483.72,1078.3,933.83,818.44V298.7L483.72,38.84,33.63,298.7Z"/></g></g></svg>

<?xml version="1.0" encoding="utf-8"?>
<!-- Generator: Adobe Illustrator 25.0.1, SVG Export Plug-In . SVG Version: 6.00 Build 0)  -->
<svg version="1.1" id="圖層_1" xmlns="http://www.w3.org/2000/svg" xmlns:xlink="http://www.w3.org/1999/xlink" x="0px" y="0px"
	 viewBox="0 0 967.5 1117.1" style="enable-background:new 0 0 967.5 1117.1;" xml:space="preserve">
<style type="text/css">
	.st0{opacity:0.1;}
	.st1{fill:#FFFFFF;}
</style>
<g id="圖層_2_1_" class="st0">
	<g id="圖層_2-2">
		<path class="st1" d="M197.2,328.5h151.3l135.8,358.9l125-358.9h154.8v23h-37.8c-13.3,0-22.3,1.9-26.9,5.8
			c-4.6,3.9-6.9,10.7-6.9,20.3v359.9c0,7.2,2.8,12.7,8.3,16.6c5.5,3.9,15.1,5.8,28.6,5.8h34.7V783h-208v-23.1H595
			c11.1,0,19.3-2.1,24.7-6.3c5.1-3.8,8.1-9.8,8-16.1v-386L477.4,783h-20.7L294.9,353.4v330.3c0,19.7,2.5,34.4,7.4,44.1
			c4.6,9.4,11.9,17.2,21,22.4c9.1,5.2,24.2,8.4,45.3,9.7V783H197.2v-23.1c28.1-1.8,47.1-7.9,57.2-18.1c10-10.2,15.1-28.4,15.1-54.4
			V374c0-7.8-2.4-13.5-7.1-17c-4.7-3.6-13.5-5.4-26.4-5.4h-38.7V328.5z"/>
		<path class="st1" d="M483.7,1117.1L0,837.8V279.3L483.7,0l483.7,279.3v558.6L483.7,1117.1z M33.6,818.4l450.1,259.9l450.1-259.9
			V298.7L483.7,38.8L33.6,298.7V818.4z"/>
	</g>
</g>
</svg>
